X:1
T:Title
%%score { ( 1 3 ) | ( 2 4 ) }
L:1/8
M:4/4
K:Eb
V:1 treble nm="Grand Piano"
V:3 treble 
V:2 bass 
V:4 bass 
V:1
 z4 z2[Q:1/4=108] B,2 | E2 E2 E3 F | G>[FA] [GB]>[Ac] [GB]2 [EG]2 | [DF]2 [DF]2 [DF]2 [CE][DF] | %4
[M:7/8] G2 B2 F3 |[M:1/8] B, |[M:4/4] E2 E2 E3 F | G>[FA] [GB]>[Ac] [GB]2 G2 | F2 B2 d3 c | %9
[M:9/8] B2 =A- A B2- [_AB]3 |[M:4/4] [EGB]2 [B,EG]2 [GB]3 [Gc] | z4 A4[K:bass] | %12
 [FA]2 [DF]2 [FA]3 [GB] | [Bd]>[Ac] [GB]>[FA] G3 B, | E2 G2 B3 [EGB] | c>e d>c [GB]>G E>[EF] | %16
 [EG]>[EB] [EG]>[B,E] [DF]2 [DF]2 |[M:3/4] [B,E]6 |] %18
V:2
 z4 z2 [E,G,]2 | [E,G,B,]2 [E,G,B,]2 [E,G,B,]3 [E,A,B,] | %2
 [E,B,E]>[E,B,] [E,E]>[E,E] [E,E]2 [E,B,]2 | [B,,B,]2 [B,,B,]2 [B,,B,]2 [C,G,][B,,B,] | %4
[M:7/8] [E,B,E]2 [G,B,E]2 [B,D]3 |[M:1/8] [D,A,] |[M:4/4] [E,G,B,]2 [E,G,B,]2 [E,G,B,]3 [E,A,B,] | %7
 [E,B,E]>[E,B,] [E,E]>[E,E] [E,E]2 [E,B,E]2 | [F,B,D]2 [F,B,D]2 [F,B,F]3 [F,=A,E] | %9
[M:9/8] [F,B,D]2 [F,CE]- [F,CE] z z D3 |[M:4/4] E,2 E,2 [E,E]3 [E,E] | %11
 [B,DF]>[B,E] [B,D]>[B,E] [B,F]4 | [B,,B,]2 [B,,B,]2 [B,,B,]3 [B,,B,] | %13
 [B,,B,]>[B,,B,] [B,,B,]>[B,,B,] [E,B,E]3 B,, | E,2 G,2 B,3 E, | %15
 [A,EA]>[A,CA] [A,DA]>[A,EA][K:bass] [E,E]>[E,B,E] [C,=A,]>[C,A,] | %16
 [B,,B,]>[B,,G,] [B,,B,]>[B,,G,] [B,,A,]2 [B,,A,]2 |[M:3/4] [E,G,]6 |] %18
V:3
 x8 | x8 | x8 | x8 |[M:7/8] x7 |[M:1/8] x |[M:4/4] x8 | x8 | x8 |[M:9/8] z3 z [B,D]2 z3 | %10
[M:4/4] x8 | A>G F>G z z/[K:bass] F,/ D,>C, | x8 | x8 | x8 | x8 | x8 |[M:3/4] x6 |] %18
V:4
 x8 | x8 | x8 | x8 |[M:7/8] x7 |[M:1/8] x |[M:4/4] x8 | x8 | x8 |[M:9/8] z3 z B,,2- B,,3 | %10
[M:4/4] x8 | x8 | x8 | x8 | x8 | x4[K:bass] x4 | x8 |[M:3/4] x6 |] %18

